public/logo-small.svg

<svg width="76" height="18" viewBox="0 0 76 18" version="1.1" xmlns="http://www.w3.org/2000/svg" xmlns:xlink="http://www.w3.org/1999/xlink" xmlns:figma="http://www.figma.com/figma/ns">
<title>Small-scale</title>
<desc>Created using Figma</desc>
<g id="Canvas" transform="translate(0 -114)" figma:type="canvas">
<mask id="mask0_alpha" mask-type="alpha">
<path d="M 0 114L 76 114L 76 132L 0 132L 0 114Z" fill="#FFFFFF"/>
</mask>
<g id="Small-scale" style="mix-blend-mode:normal;" mask="url(#mask0_alpha)" figma:type="frame">
<path d="M 0 114L 76 114L 76 132L 0 132L 0 114Z" fill="#FFFFFF"/>
<g id="Small-Scale Logo" style="mix-blend-mode:normal;" figma:type="frame">
<g id="Rectangle" style="mix-blend-mode:normal;" figma:type="rounded-rectangle">
<use xlink:href="#path0_fill" transform="translate(18 116)" fill="#735193" style="mix-blend-mode:normal;"/>
</g>
<g id="Rectangle" style="mix-blend-mode:normal;" figma:type="rounded-rectangle">
<use xlink:href="#path0_fill" transform="translate(2 116)" fill="#E83151" style="mix-blend-mode:normal;"/>
</g>
</g>
<g id="Cull21" style="mix-blend-mode:normal;" figma:type="text">
<use xlink:href="#path1_fill" transform="translate(34 114)" fill="#E83151" style="mix-blend-mode:normal;"/>
<use xlink:href="#path2_fill" transform="translate(34 114)" fill="#735193" style="mix-blend-mode:normal;"/>
<use xlink:href="#path3_fill" transform="translate(34 114)" fill="#387780" style="mix-blend-mode:normal;"/>
</g>
</g>
</g>
<defs>
<path id="path0_fill" d="M 0 0L 14 0L 14 14L 0 14L 0 0Z"/>
<path id="path1_fill" d="M 29.7841 8.848C 30.0828 8.57733 30.2975 8.31133 30.4281 8.05C 30.5588 7.78867 30.6241 7.45733 30.6241 7.056C 30.6241 6.53333 30.4748 6.11333 30.1761 5.796C 29.8775 5.47867 29.4248 5.32 28.8181 5.32C 28.2208 5.32 27.7728 5.47867 27.4741 5.796C 27.1755 6.104 26.9608 6.524 26.8301 7.056C 26.8021 7.15867 26.7555 7.238 26.6901 7.294C 26.6248 7.35 26.5501 7.378 26.4661 7.378L 25.8221 7.378C 25.7381 7.378 25.6635 7.35 25.5981 7.294C 25.5421 7.22867 25.5141 7.154 25.5141 7.07C 25.5328 6.594 25.6728 6.12267 25.9341 5.656C 26.2048 5.18933 26.5875 4.80667 27.0821 4.508C 27.5768 4.20933 28.1555 4.06 28.8181 4.06C 29.4808 4.06 30.0455 4.19533 30.5121 4.466C 30.9881 4.72733 31.3475 5.08667 31.5901 5.544C 31.8328 5.992 31.9541 6.496 31.9541 7.056C 31.9541 7.644 31.8515 8.148 31.6461 8.568C 31.4501 8.97867 31.1095 9.39867 30.6241 9.828L 27.5021 12.74L 31.7861 12.74C 31.8888 12.74 31.9775 12.7773 32.0521 12.852C 32.1268 12.9267 32.1641 13.0153 32.1641 13.118L 32.1641 13.622C 32.1641 13.7247 32.1268 13.8133 32.0521 13.888C 31.9775 13.9627 31.8888 14 31.7861 14L 25.7521 14C 25.6495 14 25.5608 13.9627 25.4861 13.888C 25.4115 13.8133 25.3741 13.7247 25.3741 13.622L 25.3741 13.118C 25.3741 13.0153 25.3928 12.9313 25.4301 12.866C 25.4768 12.7913 25.5608 12.698 25.6821 12.586L 29.7841 8.848Z"/>
<path id="path2_fill" d="M 37.7086 13.622C 37.7086 13.7247 37.6713 13.8133 37.5966 13.888C 37.5219 13.9627 37.4333 14 37.3306 14L 36.7566 14C 36.6539 14 36.5653 13.9627 36.4906 13.888C 36.4159 13.8133 36.3786 13.7247 36.3786 13.622L 36.3786 5.908L 34.1106 7.63C 34.0453 7.686 33.9659 7.714 33.8726 7.714C 33.7513 7.714 33.6533 7.66733 33.5786 7.574L 33.2426 7.14C 33.1866 7.06533 33.1586 6.986 33.1586 6.902C 33.1586 6.78067 33.2099 6.68267 33.3126 6.608L 36.3086 4.312C 36.4113 4.23733 36.5606 4.2 36.7566 4.2L 37.3306 4.2C 37.4333 4.2 37.5219 4.23733 37.5966 4.312C 37.6713 4.38667 37.7086 4.47533 37.7086 4.578L 37.7086 13.622Z"/>
<path id="path3_fill" d="M 2.42684 10.276C 2.45484 11.0693 2.69284 11.704 3.14084 12.18C 3.59817 12.6467 4.23284 12.88 5.04484 12.88C 5.86617 12.88 6.47284 12.7027 6.86484 12.348C 7.25684 11.9933 7.51817 11.536 7.64884 10.976C 7.6675 10.8827 7.7095 10.808 7.77484 10.752C 7.8495 10.696 7.92884 10.668 8.01284 10.668L 8.65684 10.668C 8.74084 10.668 8.81084 10.7007 8.86684 10.766C 8.93217 10.822 8.96484 10.892 8.96484 10.976C 8.94617 11.4333 8.79684 11.9093 8.51684 12.404C 8.23684 12.8893 7.80284 13.3 7.21484 13.636C 6.63617 13.972 5.91284 14.14 5.04484 14.14C 4.26084 14.14 3.57484 13.9767 2.98684 13.65C 2.39884 13.3233 1.9415 12.8753 1.61484 12.306C 1.2975 11.7273 1.12484 11.074 1.09684 10.346C 1.0875 10.066 1.08284 9.65067 1.08284 9.1C 1.08284 8.54933 1.0875 8.134 1.09684 7.854C 1.12484 7.126 1.2975 6.47733 1.61484 5.908C 1.9415 5.32933 2.39884 4.87667 2.98684 4.55C 3.57484 4.22333 4.26084 4.06 5.04484 4.06C 5.91284 4.06 6.63617 4.228 7.21484 4.564C 7.80284 4.9 8.23684 5.31533 8.51684 5.81C 8.79684 6.29533 8.94617 6.76667 8.96484 7.224C 8.96484 7.308 8.93217 7.38267 8.86684 7.448C 8.81084 7.504 8.74084 7.532 8.65684 7.532L 8.01284 7.532C 7.92884 7.532 7.8495 7.504 7.77484 7.448C 7.7095 7.392 7.6675 7.31733 7.64884 7.224C 7.51817 6.664 7.25684 6.20667 6.86484 5.852C 6.47284 5.49733 5.86617 5.32 5.04484 5.32C 4.23284 5.32 3.59817 5.558 3.14084 6.034C 2.69284 6.50067 2.45484 7.13067 2.42684 7.924C 2.4175 8.204 2.41284 8.596 2.41284 9.1C 2.41284 9.604 2.4175 9.996 2.42684 10.276ZM 10.5747 7.098C 10.5747 6.99533 10.6121 6.90667 10.6867 6.832C 10.7614 6.75733 10.8501 6.72 10.9527 6.72L 11.4707 6.72C 11.5734 6.72 11.6621 6.75733 11.7367 6.832C 11.8114 6.90667 11.8487 6.99533 11.8487 7.098L 11.8487 10.794C 11.8487 11.5033 12.0074 12.04 12.3247 12.404C 12.6514 12.7587 13.1227 12.936 13.7387 12.936C 14.3361 12.936 14.7981 12.754 15.1247 12.39C 15.4607 12.026 15.6287 11.494 15.6287 10.794L 15.6287 7.098C 15.6287 6.99533 15.6661 6.90667 15.7407 6.832C 15.8154 6.75733 15.9041 6.72 16.0067 6.72L 16.5247 6.72C 16.6274 6.72 16.7161 6.75733 16.7907 6.832C 16.8654 6.90667 16.9027 6.99533 16.9027 7.098L 16.9027 13.622C 16.9027 13.7247 16.8654 13.8133 16.7907 13.888C 16.7161 13.9627 16.6274 14 16.5247 14L 16.0067 14C 15.9041 14 15.8154 13.9627 15.7407 13.888C 15.6661 13.8133 15.6287 13.7247 15.6287 13.622L 15.6287 13.188C 15.1434 13.8227 14.4434 14.14 13.5287 14.14C 12.6327 14.14 11.9141 13.86 11.3727 13.3C 10.8407 12.74 10.5747 11.9747 10.5747 11.004L 10.5747 7.098ZM 20.2722 13.622C 20.2722 13.7247 20.2349 13.8133 20.1602 13.888C 20.0856 13.9627 19.9969 14 19.8942 14L 19.3762 14C 19.2736 14 19.1849 13.9627 19.1102 13.888C 19.0356 13.8133 18.9982 13.7247 18.9982 13.622L 18.9982 4.438C 18.9982 4.33533 19.0356 4.24667 19.1102 4.172C 19.1849 4.09733 19.2736 4.06 19.3762 4.06L 19.8942 4.06C 19.9969 4.06 20.0856 4.09733 20.1602 4.172C 20.2349 4.24667 20.2722 4.33533 20.2722 4.438L 20.2722 13.622ZM 23.6492 13.622C 23.6492 13.7247 23.6119 13.8133 23.5372 13.888C 23.4625 13.9627 23.3739 14 23.2712 14L 22.7532 14C 22.6505 14 22.5619 13.9627 22.4872 13.888C 22.4125 13.8133 22.3752 13.7247 22.3752 13.622L 22.3752 4.438C 22.3752 4.33533 22.4125 4.24667 22.4872 4.172C 22.5619 4.09733 22.6505 4.06 22.7532 4.06L 23.2712 4.06C 23.3739 4.06 23.4625 4.09733 23.5372 4.172C 23.6119 4.24667 23.6492 4.33533 23.6492 4.438L 23.6492 13.622Z"/>
</defs>
</svg>

<svg width="76" height="18" viewBox="0 0 76 18" xmlns="http://www.w3.org/2000/svg" xmlns:xlink="http://www.w3.org/1999/xlink" xmlns:figma="http://www.figma.com/figma/ns"><title>Small-scale</title><desc>Created using Figma</desc><g transform="translate(0 -114)" figma:type="canvas"><mask id="a"><path d="M0 114h76v18H0v-18z" fill="#FFF"/></mask><g style="mix-blend-mode:normal" mask="url(#a)" figma:type="frame"><g style="mix-blend-mode:normal" figma:type="frame"><use xlink:href="#b" transform="translate(18 116)" fill="#735193" style="mix-blend-mode:normal" figma:type="rounded-rectangle"/><use xlink:href="#b" transform="translate(2 116)" fill="#E83151" style="mix-blend-mode:normal" figma:type="rounded-rectangle"/></g><g style="mix-blend-mode:normal" figma:type="text" transform="translate(34 114)"><use xlink:href="#c" fill="#E83151" style="mix-blend-mode:normal"/><use xlink:href="#d" fill="#735193" style="mix-blend-mode:normal"/><use xlink:href="#e" fill="#387780" style="mix-blend-mode:normal"/></g></g></g><defs><path id="b" d="M0 0h14v14H0V0z"/><path id="c" d="M29.784 8.848c.299-.27.514-.537.644-.798s.196-.593.196-.994c0-.523-.15-.943-.448-1.26-.298-.317-.751-.476-1.358-.476-.597 0-1.045.159-1.344.476-.299.308-.513.728-.644 1.26a.464.464 0 0 1-.14.238.334.334 0 0 1-.224.084h-.644a.335.335 0 0 1-.224-.084.334.334 0 0 1-.084-.224c.019-.476.159-.947.42-1.414.27-.467.653-.85 1.148-1.148.495-.299 1.073-.448 1.736-.448s1.227.135 1.694.406c.476.261.835.62 1.078 1.078.243.448.364.952.364 1.512 0 .588-.102 1.092-.308 1.512-.196.41-.537.83-1.022 1.26l-3.122 2.912h4.284c.103 0 .191.037.266.112a.363.363 0 0 1 .112.266v.504a.363.363 0 0 1-.112.266.363.363 0 0 1-.266.112h-6.034a.363.363 0 0 1-.266-.112.364.364 0 0 1-.112-.266v-.504c0-.103.019-.187.056-.252a1.52 1.52 0 0 1 .252-.28l4.102-3.738z"/><path id="d" d="M37.709 13.622a.363.363 0 0 1-.112.266.363.363 0 0 1-.266.112h-.574a.363.363 0 0 1-.266-.112.363.363 0 0 1-.112-.266V5.908L34.11 7.63a.353.353 0 0 1-.238.084.358.358 0 0 1-.294-.14l-.336-.434a.39.39 0 0 1-.084-.238c0-.121.05-.22.154-.294l2.996-2.296c.102-.075.252-.112.448-.112h.574c.102 0 .19.037.266.112a.363.363 0 0 1 .112.266v9.044z"/><path id="e" d="M2.427 10.276c.028.793.266 1.428.714 1.904.457.467 1.092.7 1.904.7.821 0 1.428-.177 1.82-.532.392-.355.653-.812.784-1.372a.384.384 0 0 1 .126-.224.39.39 0 0 1 .238-.084h.644c.084 0 .154.033.21.098a.265.265 0 0 1 .098.21c-.019.457-.168.933-.448 1.428-.28.485-.714.896-1.302 1.232-.579.336-1.302.504-2.17.504-.784 0-1.47-.163-2.058-.49a3.519 3.519 0 0 1-1.372-1.344c-.317-.579-.49-1.232-.518-1.96A40.7 40.7 0 0 1 1.083 9.1c0-.55.004-.966.014-1.246.028-.728.2-1.377.518-1.946A3.49 3.49 0 0 1 2.987 4.55c.588-.327 1.274-.49 2.058-.49.868 0 1.591.168 2.17.504.588.336 1.022.751 1.302 1.246.28.485.43.957.448 1.414a.308.308 0 0 1-.098.224.285.285 0 0 1-.21.084h-.644a.39.39 0 0 1-.238-.084.384.384 0 0 1-.126-.224c-.13-.56-.392-1.017-.784-1.372-.392-.355-.999-.532-1.82-.532-.812 0-1.447.238-1.904.714-.448.467-.686 1.097-.714 1.89-.01.28-.014.672-.014 1.176 0 .504.005.896.014 1.176zm8.148-3.178c0-.103.037-.191.112-.266a.364.364 0 0 1 .266-.112h.518c.102 0 .191.037.266.112a.363.363 0 0 1 .112.266v3.696c0 .71.158 1.246.476 1.61.326.355.798.532 1.414.532.597 0 1.06-.182 1.386-.546.336-.364.504-.896.504-1.596V7.098c0-.103.037-.191.112-.266a.364.364 0 0 1 .266-.112h.518c.102 0 .191.037.266.112a.363.363 0 0 1 .112.266v6.524a.363.363 0 0 1-.112.266.363.363 0 0 1-.266.112h-.518a.363.363 0 0 1-.266-.112.364.364 0 0 1-.112-.266v-.434c-.486.635-1.186.952-2.1.952-.896 0-1.615-.28-2.156-.84-.532-.56-.798-1.325-.798-2.296V7.098zm9.697 6.524a.363.363 0 0 1-.112.266.363.363 0 0 1-.266.112h-.518a.363.363 0 0 1-.266-.112.364.364 0 0 1-.112-.266V4.438c0-.103.038-.191.112-.266a.364.364 0 0 1 .266-.112h.518a.36.36 0 0 1 .266.112.363.363 0 0 1 .112.266v9.184zm3.377 0a.363.363 0 0 1-.112.266.363.363 0 0 1-.266.112h-.518a.363.363 0 0 1-.266-.112.363.363 0 0 1-.112-.266V4.438c0-.103.038-.191.112-.266a.363.363 0 0 1 .266-.112h.518c.103 0 .191.037.266.112a.363.363 0 0 1 .112.266v9.184z"/></defs></svg>
